X:1
T:Angyaloknak nagyságos Asszonya
T:Angyaloknak nagyságos Asszonya
T:ének Szűz Máriához
T:népének
C:népdal
L:1/8
Q:1/4=80
M:4/4
K:F
V:1 treble nm="Piano" snm="Pno."
V:1
 DDA A2 | GFGA B A2 z | ccB A2 | GABA G F2 z | %4
w: An- gya- lok- nak|nagy- sá- gos Asz- szo- nya,|Úr Jé- zus- nak|bol- dog- sá- gos any- ja,|
"_2. Reád néznek árváknak szemei,\nözvegyeknek keserves szívei,\nreád várnak szegények ügyei,\nbűnösöknek bánkódó lelkei.\n\n3. Hozzád szólunk, szüzeknek virága,\npátriárkák várva-várt leánya,\napostolok tiszteletes társa,\nminden szentek édes vigassága.\n\n4. Halottaknak megszabadítója,\nszomorúak megvigasztalója,\ngondban levők jó tanácsadója,\nmagyaroknak megoltalmazója.\n\n5. Dicsértessél, örök Szentháromság,\nkitől árad reánk minden jóság!\nTiszteltessél, tündöklő Asszonyság,\nmindenek közt legnagyobb méltóság!" ABA G2 | %5
w: menny- or- szág- nak|
 AGFE D C2 z | CDE(F>G) | AAGF E D2 z |] %8
w: di- cső Ki- rály- né- ja,|pa- ra- di- csom *|meg- nyílt, szép ka- pu- ja!|

